examples/icons/poweroff.svg

<?xml version="1.0" encoding="UTF-8"?>
<!DOCTYPE svg PUBLIC "-//W3C//DTD SVG 1.1//EN" "http://www.w3.org/Graphics/SVG/1.1/DTD/svg11.dtd">
<svg xmlns="http://www.w3.org/2000/svg" version="1.1" width="192px" height="192px" style="shape-rendering:geometricPrecision; text-rendering:geometricPrecision; image-rendering:optimizeQuality; fill-rule:evenodd; clip-rule:evenodd" xmlns:xlink="http://www.w3.org/1999/xlink">
<g><path style="opacity:0.981" fill="#000000" d="M 87.5,31.5 C 92.2225,30.5531 96.0558,31.8864 99,35.5C 99.6667,51.5 99.6667,67.5 99,83.5C 94,88.8333 89,88.8333 84,83.5C 83.3333,67.5 83.3333,51.5 84,35.5C 85.3756,34.2949 86.5423,32.9616 87.5,31.5 Z"/></g>
<g><path style="opacity:0.941" fill="#000000" d="M 57.5,56.5 C 67.3599,56.5431 70.5265,61.2098 67,70.5C 51.1521,89.6469 52.3187,107.814 70.5,125C 88.9885,135.667 105.489,133.167 120,117.5C 130.69,99.9568 129.023,83.6235 115,68.5C 113.733,58.4304 117.899,54.9304 127.5,58C 140.853,71.0601 146.02,86.8934 143,105.5C 134.994,135.425 115.494,149.591 84.5,148C 62.6099,144.112 48.1099,131.612 41,110.5C 35.7859,88.9899 41.2859,70.9899 57.5,56.5 Z"/></g>
</svg>

<svg width="192" height="192" style="shape-rendering:geometricPrecision;text-rendering:geometricPrecision;image-rendering:optimizeQuality;fill-rule:evenodd;clip-rule:evenodd" xmlns="http://www.w3.org/2000/svg"><g style="fill:#fff"><path style="opacity:.981;fill:#fff" fill="#000" d="M87.5 31.5c4.722-.947 8.556.386 11.5 4 .667 16 .667 32 0 48-5 5.333-10 5.333-15 0-.667-16-.667-32 0-48a19.568 19.568 0 0 0 3.5-4Z"/></g><g style="fill:#fff"><path style="opacity:.941;fill:#fff" fill="#000" d="M57.5 56.5c9.86.043 13.026 4.71 9.5 14-15.848 19.147-14.681 37.314 3.5 54.5 18.489 10.667 34.989 8.167 49.5-7.5 10.69-17.543 9.023-33.876-5-49-1.267-10.07 2.899-13.57 12.5-10.5 13.353 13.06 18.52 28.893 15.5 47.5-8.006 29.925-27.506 44.091-58.5 42.5-21.89-3.888-36.39-16.388-43.5-37.5-5.214-21.51.286-39.51 16.5-54Z"/></g></svg>
